X: 1
T: Joy of My Life
T: Donnybrook Fair
R: jig
S: https://connollymusiccollection.bc.edu/document/505
M: 6/8
L: 1/8
K: Gmaj
|:D || G2 B AGA|B2 e dBA|BAB GAB|AGE E2 D|
G2 B AGA|Bee dBA|BAB GAB|AGG G2 :|
|:g||fed g2 e|fed e2 d|Bee dBA|Bee e2 d|
Bee dBA|Bee dBA|BAB GAB|AGG G2 :|
